updated-assets/images/divinity.svg

<svg width="160" height="53" viewBox="0 0 160 53" fill="none" xmlns="http://www.w3.org/2000/svg">
<g clip-path="url(#clip0_1803_308)">
<path d="M5.52448 53H21.0556C32.2433 53 40.9303 47.8761 45.2856 39.627C46.3871 37.5539 47.2058 35.2766 47.7238 32.8384C48.1525 30.8334 48.3728 28.7139 48.3728 26.5015C48.3728 10.9038 37.3727 0 21.0556 0H5.52448V0.0092825C5.29525 0.00309417 5.06602 0 4.83381 0H0.293843V0.309417H0.284912V5.03112C0.284912 11.8259 1.96991 17.7358 4.95587 22.377C5.97103 23.952 7.13505 25.3846 8.43303 26.6532C7.13505 27.9218 5.97103 29.3513 4.95587 30.9262C1.96991 35.5675 0.284912 41.4773 0.284912 48.2721V52.9938H0.293843V53.0031H5.52448V53ZM5.68524 48.1298C5.63165 48.1298 5.57806 48.136 5.52448 48.136C5.33395 48.1453 5.14342 48.1483 4.94991 48.1514C4.94991 47.8946 4.95884 47.644 4.97075 47.3903C5.23571 39.7817 8.06984 33.7326 12.6485 29.9206C14.3305 28.5159 16.2507 27.4143 18.3703 26.6532C16.2537 25.8889 14.3335 24.7905 12.6485 23.3826C8.06984 19.5706 5.23273 13.5215 4.97075 5.91296C4.95587 5.56022 4.94694 5.20748 4.94694 4.85166C5.14044 4.85166 5.33097 4.85784 5.52448 4.86713C5.57806 4.86713 5.63165 4.86713 5.68524 4.87331C16.1346 5.26318 23.5355 11.1081 25.9707 19.8831C26.453 21.622 26.7388 23.4785 26.8162 25.4279C26.8311 25.7868 26.837 26.1426 26.837 26.5015C26.837 26.9626 26.8251 27.4205 26.8013 27.8723C26.703 29.8247 26.3934 31.6843 25.8844 33.4232C23.3658 42.0312 16.0155 47.7399 5.68524 48.1298ZM43.0529 26.7274C43.035 29.0759 42.7194 31.2882 42.124 33.3428C39.6025 42.0993 32.0885 47.8792 21.529 48.1422C26.6256 44.6024 30.1326 39.299 31.505 32.8322C31.9009 30.9788 32.1183 29.0233 32.148 26.9904C32.154 26.8264 32.154 26.6655 32.154 26.4985C32.154 26.4335 32.154 26.3685 32.154 26.3066C32.145 24.2768 31.9456 22.3337 31.5735 20.4803C30.2457 13.8681 26.706 8.45017 21.529 4.85166C32.1778 5.12085 39.7246 10.9936 42.1895 19.8677C42.7611 21.9284 43.0588 24.15 43.0588 26.4954V26.7212L43.0529 26.7274Z" fill="#141213"/>
<path d="M55.4076 6.38672H63.8356C69.742 6.38672 73.7907 9.96048 73.7907 15.6476C73.7907 21.3346 69.742 24.9084 63.8356 24.9084H55.4076V6.38672ZM63.6301 20.7313C66.6608 20.7313 68.697 18.8531 68.697 15.6507C68.697 12.4482 66.6608 10.57 63.6301 10.57H60.4477V20.7313H63.6301Z" fill="#141213"/>
<path d="M75.6752 6.3091C75.6752 4.79915 76.8451 3.63574 78.6284 3.63574C80.4116 3.63574 81.5816 4.72179 81.5816 6.22865C81.5816 7.81596 80.4116 8.97937 78.6284 8.97937C76.8451 8.97937 75.6752 7.81596 75.6752 6.30601V6.3091ZM76.211 10.5698H81.0487V24.9112H76.211V10.5698Z" fill="#141213"/>
<path d="M98.7174 10.5693L93.0134 24.9108H88.0239L82.3467 10.5693H87.3124L90.6228 19.3289L94.1119 10.5693H98.7203H98.7174Z" fill="#141213"/>
<path d="M99.4288 6.3091C99.4288 4.79915 100.599 3.63574 102.382 3.63574C104.165 3.63574 105.335 4.72179 105.335 6.22865C105.335 7.81596 104.165 8.97937 102.382 8.97937C100.599 8.97937 99.4288 7.81596 99.4288 6.30601V6.3091ZM99.9647 10.5698H104.802V24.9112H99.9647V10.5698Z" fill="#141213"/>
<path d="M122.623 16.7089V24.9116H117.785V17.5289C117.785 15.4651 116.919 14.5925 115.52 14.5925C113.966 14.5925 112.769 15.5981 112.769 17.9807V24.9147H107.931V10.5732H112.54V12.1358C113.635 10.9445 115.186 10.335 116.919 10.335C120.152 10.335 122.623 12.2657 122.623 16.712V16.7089Z" fill="#141213"/>
<path d="M125.118 6.3091C125.118 4.79915 126.288 3.63574 128.071 3.63574C129.854 3.63574 131.024 4.72179 131.024 6.22865C131.024 7.81596 129.854 8.97937 128.071 8.97937C126.288 8.97937 125.118 7.81596 125.118 6.30601V6.3091ZM125.653 10.5698H130.491V24.9112H125.653V10.5698Z" fill="#141213"/>
<path d="M143.144 24.3294C142.304 24.8864 141.057 25.1494 139.782 25.1494C136.243 25.1494 134.18 23.3486 134.18 19.6727V14.8551H132.167V11.0988H134.18V7.36719H139.017V11.0988H142.176V14.8551H139.017V19.617C139.017 20.6752 139.604 21.2569 140.47 21.2569C141.006 21.2569 141.539 21.0991 141.947 20.8083L143.144 24.3294Z" fill="#141213"/>
<path d="M159.285 10.5693L153.328 25.4956C151.875 29.1993 149.839 30.2854 147.115 30.2854C145.662 30.2854 144.034 29.7841 143.117 28.9889L144.796 25.4678C145.355 25.9969 146.171 26.3156 146.933 26.3156C147.874 26.3156 148.41 25.9443 148.818 25.0996L142.911 10.5724H147.877L151.265 19.332L154.676 10.5724H159.285V10.5693Z" fill="#141213"/>
<path d="M55.3569 32.3555H61.1264C65.2823 32.3555 68.1284 34.9577 68.1284 38.9553C68.1284 42.953 65.2794 45.5552 61.1264 45.5552H55.3569V32.3555ZM60.9805 43.0458C63.5021 43.0458 65.1543 41.4802 65.1543 38.9553C65.1543 36.4305 63.5021 34.8648 60.9805 34.8648H58.2953V43.0489H60.9805V43.0458Z" fill="#141213"/>
<path d="M79.6524 41.3129H72.2694C72.5403 42.5754 73.5763 43.3489 75.0648 43.3489C76.0978 43.3489 76.8421 43.0271 77.5149 42.368L79.0213 44.0667C78.1133 45.1404 76.7528 45.7067 74.9934 45.7067C71.6174 45.7067 69.4233 43.5005 69.4233 40.4837C69.4233 37.4669 71.6561 35.2607 74.6302 35.2607C77.6042 35.2607 79.709 37.2596 79.709 40.5208C79.709 40.7467 79.6732 41.0685 79.6554 41.3129H79.6524ZM72.2307 39.5957H77.0386C76.8391 38.3147 75.9133 37.4824 74.645 37.4824C73.3768 37.4824 72.4301 38.293 72.2307 39.5957Z" fill="#141213"/>
<path d="M81.5964 31.5635H84.4276V45.5553H81.5964V31.5635Z" fill="#141213"/>
<path d="M86.7109 32.3557C86.7109 31.4306 87.4195 30.7158 88.4704 30.7158C89.5213 30.7158 90.2298 31.3934 90.2298 32.3C90.2298 33.2809 89.5213 33.9987 88.4704 33.9987C87.4195 33.9987 86.7109 33.2809 86.7109 32.3588V32.3557ZM87.0563 35.4097H89.8874V45.5554H87.0563V35.4097Z" fill="#141213"/>
<path d="M102.587 35.4094V43.8565C102.587 47.6283 100.629 49.3641 97.1067 49.3641C95.255 49.3641 93.4599 48.8938 92.3167 47.9687L93.442 45.8553C94.2756 46.5546 95.6361 47.0064 96.8894 47.0064C98.884 47.0064 99.7563 46.0626 99.7563 44.234V43.8008C99.012 44.6486 97.9433 45.0632 96.6721 45.0632C93.9689 45.0632 91.7927 43.1201 91.7927 40.1621C91.7927 37.204 93.9689 35.2578 96.6721 35.2578C98.0326 35.2578 99.1579 35.7281 99.9021 36.709V35.4063H102.587V35.4094ZM99.792 40.1621C99.792 38.6738 98.7203 37.6744 97.2347 37.6744C95.7492 37.6744 94.6596 38.6738 94.6596 40.1621C94.6596 41.6504 95.7492 42.6498 97.2347 42.6498C98.7203 42.6498 99.792 41.6504 99.792 40.1621Z" fill="#141213"/>
<path d="M115.198 39.7476V45.5553H112.367V40.1993C112.367 38.5594 111.641 37.8044 110.39 37.8044C109.03 37.8044 108.05 38.6708 108.05 40.5397V45.5553H105.219V31.5635H108.05V36.4646C108.812 35.6725 109.902 35.2579 111.152 35.2579C113.457 35.2579 115.198 36.6534 115.198 39.7445V39.7476Z" fill="#141213"/>
<path d="M124.055 45.067C123.474 45.5002 122.623 45.7075 121.751 45.7075C119.446 45.7075 118.104 44.4822 118.104 42.0688V37.9009H116.597V35.6391H118.104V33.1699H120.935V35.6391H123.367V37.9009H120.935V42.0316C120.935 42.898 121.387 43.3714 122.149 43.3714C122.566 43.3714 122.983 43.2383 123.293 42.9939L124.055 45.067Z" fill="#141213"/>
<path d="M124.707 44.6144L125.65 42.5011C126.523 43.0859 127.845 43.4819 129.044 43.4819C130.351 43.4819 130.839 43.123 130.839 42.5568C130.839 40.8983 124.942 42.5939 124.942 38.5406C124.942 36.616 126.612 35.2607 129.461 35.2607C130.804 35.2607 132.292 35.5825 133.218 36.1457L132.274 38.2373C131.313 37.6711 130.351 37.4824 129.461 37.4824C128.19 37.4824 127.648 37.897 127.648 38.4261C127.648 40.1619 133.546 38.4818 133.546 42.4794C133.546 44.3638 131.858 45.7036 128.937 45.7036C127.285 45.7036 125.618 45.2332 124.71 44.6113L124.707 44.6144Z" fill="#141213"/>
</g>
<defs>
<clipPath id="clip0_1803_308">
<rect width="159" height="53" fill="white" transform="translate(0.284912)"/>
</clipPath>
</defs>
</svg>

<svg width="160" height="53" fill="none" xmlns="http://www.w3.org/2000/svg"><g clip-path="url(#a)" fill="#141213"><path d="M5.524 53h15.532c11.187 0 19.874-5.124 24.23-13.373 1.101-2.073 1.92-4.35 2.438-6.789.429-2.005.649-4.124.649-6.337C48.373 10.905 37.373 0 21.056 0H5.524v.01C5.295.002 5.066 0 4.834 0H.294v.31h-.01v4.72c0 6.795 1.686 12.705 4.672 17.346a24.608 24.608 0 0 0 3.477 4.276 24.589 24.589 0 0 0-3.477 4.273C1.97 35.568.285 41.477.285 48.272v4.722h.009v.01h5.23V53Zm.161-4.87c-.053 0-.107.006-.16.006-.191.01-.382.012-.575.015 0-.256.009-.507.02-.76.266-7.61 3.1-13.658 7.679-17.47a18.796 18.796 0 0 1 5.721-3.268 18.876 18.876 0 0 1-5.722-3.27C8.07 19.57 5.234 13.522 4.972 5.913a25.137 25.137 0 0 1-.024-1.061c.193 0 .384.006.577.015.054 0 .108 0 .161.006 10.45.39 17.85 6.235 20.286 15.01.482 1.739.768 3.596.845 5.545a26.083 26.083 0 0 1-.015 2.444 24.053 24.053 0 0 1-.917 5.551c-2.519 8.608-9.87 14.317-20.2 14.707Zm37.368-21.403c-.018 2.349-.334 4.561-.929 6.616-2.522 8.756-10.035 14.536-20.595 14.8 5.097-3.54 8.604-8.844 9.976-15.31.396-1.854.613-3.81.643-5.843.006-.164.006-.324.006-.491v-.192a30.23 30.23 0 0 0-.58-5.827c-1.328-6.612-4.868-12.03-10.045-15.628 10.649.269 18.196 6.142 20.66 15.016.572 2.06.87 4.282.87 6.627v.226l-.006.006Zm12.355-20.34h8.428c5.906 0 9.955 3.573 9.955 9.26 0 5.688-4.049 9.261-9.955 9.261h-8.428V6.387ZM63.63 20.73c3.03 0 5.067-1.878 5.067-5.08 0-3.203-2.036-5.081-5.067-5.081h-3.182V20.73h3.182ZM75.675 6.31c0-1.51 1.17-2.674 2.953-2.674 1.784 0 2.954 1.086 2.954 2.593 0 1.587-1.17 2.75-2.954 2.75-1.783 0-2.953-1.163-2.953-2.673v.003Zm.536 4.26h4.838v14.34H76.21V10.57Zm22.506 0-5.704 14.34h-4.99l-5.676-14.34h4.965l3.31 8.759 3.49-8.76h4.608-.003Zm.712-4.26c0-1.51 1.17-2.674 2.953-2.674s2.953 1.086 2.953 2.593c0 1.587-1.17 2.75-2.953 2.75s-2.953-1.163-2.953-2.673v.003Zm.536 4.26h4.837v14.34h-4.837V10.57Zm22.658 6.139v8.203h-4.838v-7.383c0-2.064-.866-2.937-2.265-2.937-1.554 0-2.751 1.006-2.751 3.389v6.934h-4.838V10.573h4.609v1.563c1.095-1.191 2.646-1.801 4.379-1.801 3.233 0 5.704 1.93 5.704 6.377v-.003Zm2.495-10.399c0-1.51 1.17-2.674 2.953-2.674s2.953 1.086 2.953 2.593c0 1.587-1.17 2.75-2.953 2.75s-2.953-1.163-2.953-2.673v.003Zm.535 4.26h4.838v14.34h-4.838V10.57Zm17.491 13.76c-.84.556-2.087.82-3.362.82-3.539 0-5.602-1.801-5.602-5.477v-4.818h-2.013V11.1h2.013V7.367h4.837V11.1h3.159v3.756h-3.159v4.762c0 1.058.587 1.64 1.453 1.64.536 0 1.069-.158 1.477-.449l1.197 3.521Z"/><path d="m159.285 10.57-5.957 14.926c-1.453 3.703-3.489 4.79-6.213 4.79-1.453 0-3.081-.502-3.998-1.297l1.679-3.521a3.216 3.216 0 0 0 2.137.848c.941 0 1.477-.372 1.885-1.216l-5.907-14.528h4.966l3.388 8.76 3.411-8.76h4.609v-.003ZM55.357 32.355h5.77c4.155 0 7.001 2.603 7.001 6.6 0 3.998-2.849 6.6-7.002 6.6h-5.77v-13.2Zm5.623 10.69c2.522 0 4.174-1.565 4.174-4.09 0-2.524-1.652-4.09-4.173-4.09h-2.686v8.184h2.685v-.003Zm18.672-1.732H72.27c.271 1.262 1.307 2.036 2.796 2.036 1.033 0 1.777-.322 2.45-.981l1.506 1.699c-.908 1.073-2.268 1.64-4.028 1.64-3.376 0-5.57-2.206-5.57-5.223s2.233-5.223 5.207-5.223c2.974 0 5.079 1.999 5.079 5.26 0 .226-.036.547-.054.792h-.003Zm-7.421-1.717h4.808c-.2-1.281-1.126-2.114-2.394-2.114-1.268 0-2.215.811-2.414 2.114Zm9.365-8.032h2.832v13.991h-2.832V31.564Zm5.114.792c0-.925.71-1.64 1.76-1.64 1.051 0 1.76.677 1.76 1.584 0 .98-.709 1.699-1.76 1.699-1.05 0-1.76-.718-1.76-1.64v-.003Zm.346 3.054h2.831v10.145h-2.83V35.41Zm15.531 0v8.447c0 3.771-1.958 5.507-5.48 5.507-1.852 0-3.647-.47-4.79-1.395l1.125-2.114c.834.7 2.194 1.151 3.447 1.151 1.995 0 2.867-.943 2.867-2.772v-.433c-.744.848-1.813 1.262-3.084 1.262-2.703 0-4.88-1.943-4.88-4.9 0-2.959 2.177-4.905 4.88-4.905 1.36 0 2.486.47 3.23 1.451v-1.303h2.685v.003Zm-2.795 4.752c0-1.488-1.072-2.488-2.557-2.488-1.486 0-2.575 1-2.575 2.488s1.09 2.488 2.575 2.488 2.557-1 2.557-2.488Zm15.406-.414v5.807h-2.831V40.2c0-1.64-.726-2.395-1.977-2.395-1.36 0-2.34.867-2.34 2.736v5.015h-2.831V31.564h2.831v4.9c.762-.791 1.852-1.206 3.102-1.206 2.305 0 4.046 1.395 4.046 4.486v.004Zm8.857 5.319c-.581.433-1.432.64-2.304.64-2.305 0-3.647-1.225-3.647-3.638V37.9h-1.507v-2.262h1.507v-2.47h2.831v2.47h2.432V37.9h-2.432v4.13c0 .867.452 1.34 1.214 1.34a1.87 1.87 0 0 0 1.144-.377l.762 2.073Zm.652-.453.943-2.113c.873.585 2.195.98 3.394.98 1.307 0 1.795-.358 1.795-.924 0-1.659-5.897.037-5.897-4.016 0-1.925 1.67-3.28 4.519-3.28 1.343 0 2.831.322 3.757.885l-.944 2.091a5.434 5.434 0 0 0-2.813-.755c-1.271 0-1.813.415-1.813.944 0 1.736 5.898.056 5.898 4.053 0 1.885-1.688 3.225-4.609 3.225-1.652 0-3.319-.47-4.227-1.093l-.003.003Z"/></g><defs><clipPath id="a"><path fill="#fff" transform="translate(.285)" d="M0 0h159v53H0z"/></clipPath></defs></svg>
